X:1
T:103. En fin l'Amour
C:Jacob van Eyck
Z:Transcribed by Laura Conrad: http://www.laymusic.org
M:C
K:C
%%LY voices \partial 4
L:1/4
|: E | E > F G G | A > B c > d | c c G c | B3 c | A B/ c/ d > c | d e f > e | e3 ::
